material/.icons/material/tag-faces.svg

<svg xmlns="http://www.w3.org/2000/svg" viewBox="0 0 24 24"><path d="M15 18c-3.32 0-6-2.69-6-6 0-3.32 2.68-6 6-6a6 6 0 016 6 6 6 0 01-6 6M4 13a1 1 0 01-1-1 1 1 0 011-1 1 1 0 011 1 1 1 0 01-1 1M22 3H7.63c-.66 0-1.25.32-1.63.81L0 12l6 8.18c.38.5.97.82 1.63.82H22a2 2 0 002-2V5a2 2 0 00-2-2m-9 8a1 1 0 001-1 1 1 0 00-1-1 1 1 0 00-1 1 1 1 0 001 1m2 5c1.86 0 3.35-1.28 3.8-3h-7.6c.45 1.72 1.94 3 3.8 3m2-5a1 1 0 001-1 1 1 0 00-1-1 1 1 0 00-1 1 1 1 0 001 1z"/></svg>

<?xml version="1.0" encoding="UTF-8"?><!DOCTYPE svg PUBLIC "-//W3C//DTD SVG 1.1//EN" "http://www.w3.org/Graphics/SVG/1.1/DTD/svg11.dtd"><svg xmlns="http://www.w3.org/2000/svg" xmlns:xlink="http://www.w3.org/1999/xlink" version="1.1" id="mdi-tag-faces" width="24" height="24" viewBox="0 0 24 24"><path d="M15,18C11.68,18 9,15.31 9,12C9,8.68 11.68,6 15,6A6,6 0 0,1 21,12A6,6 0 0,1 15,18M4,13A1,1 0 0,1 3,12A1,1 0 0,1 4,11A1,1 0 0,1 5,12A1,1 0 0,1 4,13M22,3H7.63C6.97,3 6.38,3.32 6,3.81L0,12L6,20.18C6.38,20.68 6.97,21 7.63,21H22A2,2 0 0,0 24,19V5C24,3.89 23.1,3 22,3M13,11A1,1 0 0,0 14,10A1,1 0 0,0 13,9A1,1 0 0,0 12,10A1,1 0 0,0 13,11M15,16C16.86,16 18.35,14.72 18.8,13H11.2C11.65,14.72 13.14,16 15,16M17,11A1,1 0 0,0 18,10A1,1 0 0,0 17,9A1,1 0 0,0 16,10A1,1 0 0,0 17,11Z" /></svg>
